contributed-vectors/scala.svg

<svg xmlns="http://www.w3.org/2000/svg" xml:space="preserve" id="svg13" width="100%" height="100%" style="fill-rule:evenodd;clip-rule:evenodd;stroke-linejoin:round;stroke-miterlimit:2" version="1.1" viewBox="0 0 192 192"><g id="g6" transform="translate(8 8)"><g id="g4"><path id="path2" d="M164.5 21.5c0-5.519-4.481-10-10-10h-133c-5.519 0-10 4.481-10 10v133c0 5.519 4.481 10 10 10h133c5.519 0 10-4.481 10-10v-133Z" style="fill:#fff"/></g></g><g id="g11" style="fill:#56595b;fill-opacity:1" transform="matrix(.74939 0 0 .74939 24.098 24.218)"><g id="Layer1" style="fill:#56595b;fill-opacity:1"><path id="path8" d="M123.578 94.511V82.626L68.735 56.459v32.805l42.7 21.275v8.316l-42.7-20.619v11.954l54.843 26.626v-33.037L80.762 82.626v-9.198l42.816 21.083Z" style="fill:#56595b;fill-opacity:1"/></g></g><style id="style853" type="text/css">.st0{fill:#fff}</style></svg>

<?xml version="1.0" encoding="UTF-8" standalone="no"?>
<svg
   xmlns:dc="http://purl.org/dc/elements/1.1/"
   xmlns:cc="http://creativecommons.org/ns#"
   xmlns:rdf="http://www.w3.org/1999/02/22-rdf-syntax-ns#"
   xmlns:svg="http://www.w3.org/2000/svg"
   xmlns="http://www.w3.org/2000/svg"
   xmlns:sodipodi="http://sodipodi.sourceforge.net/DTD/sodipodi-0.dtd"
   xmlns:inkscape="http://www.inkscape.org/namespaces/inkscape"
   width="100%"
   height="100%"
   viewBox="0 0 192 192"
   version="1.1"
   xml:space="preserve"
   style="fill-rule:evenodd;clip-rule:evenodd;stroke-linejoin:round;stroke-miterlimit:2;"
   id="svg13"
   sodipodi:docname="scala.svg"
   inkscape:version="1.0.1 (3bc2e813f5, 2020-09-07)"
   inkscape:export-filename="scala.png"
   inkscape:export-xdpi="96"
   inkscape:export-ydpi="96"><metadata
   id="metadata19"><rdf:RDF><cc:Work
       rdf:about=""><dc:format>image/svg+xml</dc:format><dc:type
         rdf:resource="http://purl.org/dc/dcmitype/StillImage" /></cc:Work></rdf:RDF></metadata><defs
   id="defs17" /><sodipodi:namedview
   pagecolor="#ffffff"
   bordercolor="#666666"
   borderopacity="1"
   objecttolerance="10"
   gridtolerance="10"
   guidetolerance="10"
   inkscape:pageopacity="0"
   inkscape:pageshadow="2"
   inkscape:window-width="1884"
   inkscape:window-height="1052"
   id="namedview15"
   showgrid="false"
   inkscape:zoom="3.3697917"
   inkscape:cx="96"
   inkscape:cy="96"
   inkscape:window-x="36"
   inkscape:window-y="0"
   inkscape:window-maximized="1"
   inkscape:current-layer="svg13" />
    <g
   transform="matrix(1,0,0,1,8,8)"
   id="g6">
        <g
   id="g4">
            <path
   d="M164.5,21.5C164.5,15.981 160.019,11.5 154.5,11.5L21.5,11.5C15.981,11.5 11.5,15.981 11.5,21.5L11.5,154.5C11.5,160.019 15.981,164.5 21.5,164.5L154.5,164.5C160.019,164.5 164.5,160.019 164.5,154.5L164.5,21.5Z"
   style="fill:white;"
   id="path2" />
        </g>
    </g>
    <g
   transform="matrix(0.749389,0,0,0.749389,24.098,24.2184)"
   id="g11"
   style="fill:#56595b;fill-opacity:1">
        <g
   id="Layer1"
   style="fill:#56595b;fill-opacity:1">
            <path
   d="M123.578,94.511L123.578,82.626L68.735,56.459L68.735,89.264L111.435,110.539L111.435,118.855L68.735,98.236L68.735,110.19L123.578,136.816L123.578,103.779L80.762,82.626L80.762,73.428L123.578,94.511Z"
   style="fill:#56595b;fill-opacity:1"
   id="path8" />
        </g>
    </g>
<style
   type="text/css"
   id="style853">
	.st0{fill:#FFFFFF;}
</style><style
   type="text/css"
   id="style853-9">
	.st0{fill:#FFFFFF;}
</style><style
   type="text/css"
   id="style853-3">
	.st0{fill:#FFFFFF;}
</style><style
   type="text/css"
   id="style853-5">
	.st0{fill:#FFFFFF;}
</style></svg>
